X: 34
T: Lark In The Morning, The
M: 6/8
L: 1/8
R: jig
K: Dmaj
|:AFA AFA|BGB BdB|AFA ABe|fed BdB|
AFA AFA|BGB BdB|def afe|fdB BdB:|
|:def a3| baf afe|def afe|dBB B3A|
def a3|baf afe|g3 f3|edB BdB:|
|:d2f fef|fef fef|d2f fef|edB BAB|
d2f fef|fef def|gfe fed|edB BAB:|
|:Add fdd|edd fdd|Add fdd|edB BAB|
Add fdd|edB def| g2e f2d|edB BAB:|

